22x22/apps/ksnakeduel.svg

<svg xmlns="http://www.w3.org/2000/svg" width="22" height="22" version="1">
 <path fill="#f4f4f7" d="m21 20v-18c0-0.554-0.446-1-1-1h-18c-0.554 0-1 0.446-1 1v18c0 0.554 0.446 1 1 1h18c0.554 0 1-0.446 1-1z"/>
 <path fill="none" stroke="#ee8827" d="m5 3.5h11.5v3h-7v3h4.5"/>
 <path fill="#fff" opacity=".2" d="m2 1c-0.554 0-1 0.446-1 1v0.5c0-0.554 0.446-1 1-1h18c0.554 0 1 0.446 1 1v-0.5c0-0.554-0.446-1-1-1h-18z"/>
 <path opacity=".2" d="m1 20v0.5c0 0.554 0.446 1 1 1h18c0.554 0 1-0.446 1-1v-0.5c0 0.554-0.446 1-1 1h-18c-0.554 0-1-0.446-1-1z"/>
 <path fill="none" stroke="#2783ee" d="m17 18.5h-11.5v-3h7v-3h-4.5"/>
</svg>

<svg xmlns="http://www.w3.org/2000/svg" width="22" height="22" version="1"><path fill="#f4f4f7" d="M21 20V2c0-.554-.446-1-1-1H2c-.554 0-1 .446-1 1v18c0 .554.446 1 1 1h18c.554 0 1-.446 1-1z"/><path fill="none" stroke="#ee8827" d="M5 3.5h11.5v3h-7v3H14"/><path fill="#fff" opacity=".2" d="M2 1c-.554 0-1 .446-1 1v.5c0-.554.446-1 1-1h18c.554 0 1 .446 1 1V2c0-.554-.446-1-1-1H2z"/><path opacity=".2" d="M1 20v.5c0 .554.446 1 1 1h18c.554 0 1-.446 1-1V20c0 .554-.446 1-1 1H2c-.554 0-1-.446-1-1z"/><path fill="none" stroke="#2783ee" d="M17 18.5H5.5v-3h7v-3H8"/></svg>
